icon-themes/breeze_svg/cmd/sc_arrowshapes.left-arrow-callout.svg

<svg viewBox="0 0 16 16" xmlns="http://www.w3.org/2000/svg"><path d="m7 2v5h-2v-2l-3 3 3 3v-2h2v5h7v-12z" fill="#4d4d4d"/></svg>

<svg xmlns="http://www.w3.org/2000/svg" viewBox="0 0 16 16">
 <path 
     style="fill:#4d4d4d" 
     d="M 7 2 L 7 7 L 5 7 L 5 5 L 2 8 L 5 11 L 5 9 L 7 9 L 7 14 L 14 14 L 14 2 L 7 2 z "
     />
 </svg>
